svg/k8s-podsecuritypolicy.svg

<?xml version="1.0" encoding="UTF-8"?>
<svg xmlns="http://www.w3.org/2000/svg" xmlns:xlink="http://www.w3.org/1999/xlink" width="32.978001" height="32" viewBox="0 0 32.978001 32">
<path fill-rule="nonzero" fill="rgb(19.607843%, 42.352942%, 89.803922%)" fill-opacity="1" d="M 16.378906 0.847656 C 16.105469 0.859375 15.835938 0.929688 15.585938 1.046875 L 4.722656 6.238281 C 4.15625 6.507812 3.742188 7.023438 3.601562 7.636719 L 0.921875 19.292969 C 0.78125 19.902344 0.925781 20.546875 1.320312 21.035156 L 8.839844 30.382812 C 9.234375 30.871094 9.832031 31.15625 10.460938 31.15625 L 22.515625 31.152344 C 23.148438 31.152344 23.746094 30.871094 24.140625 30.378906 L 31.65625 21.03125 C 32.050781 20.542969 32.199219 19.902344 32.058594 19.289062 L 29.375 7.632812 C 29.234375 7.019531 28.820312 6.503906 28.25 6.234375 L 17.386719 1.046875 C 17.074219 0.898438 16.726562 0.828125 16.378906 0.847656 M 16.378906 0.847656 "/>
<path fill-rule="nonzero" fill="rgb(100%, 100%, 100%)" fill-opacity="1" d="M 16.375 0.00390625 C 16.082031 0.0195312 15.796875 0.0898438 15.535156 0.214844 L 4.070312 5.695312 C 3.46875 5.980469 3.03125 6.523438 2.882812 7.167969 L 0.0546875 19.472656 C -0.078125 20.046875 0.03125 20.648438 0.351562 21.140625 C 0.390625 21.203125 0.433594 21.257812 0.476562 21.3125 L 8.414062 31.183594 C 8.832031 31.699219 9.464844 32 10.128906 32 L 22.851562 31.996094 C 23.519531 31.996094 24.152344 31.695312 24.566406 31.179688 L 32.5 21.3125 C 32.914062 20.796875 33.070312 20.117188 32.921875 19.472656 L 30.089844 7.164062 C 29.9375 6.519531 29.503906 5.976562 28.90625 5.691406 L 17.4375 0.214844 C 17.105469 0.0585938 16.742188 -0.015625 16.375 0.00390625 M 16.378906 0.847656 C 16.726562 0.828125 17.074219 0.898438 17.386719 1.046875 L 28.25 6.234375 C 28.816406 6.507812 29.230469 7.019531 29.375 7.632812 L 32.058594 19.289062 C 32.199219 19.902344 32.050781 20.542969 31.65625 21.03125 L 24.140625 30.378906 C 23.746094 30.871094 23.148438 31.15625 22.515625 31.152344 L 10.460938 31.15625 C 9.828125 31.15625 9.230469 30.871094 8.839844 30.382812 L 1.320312 21.035156 C 0.925781 20.546875 0.78125 19.902344 0.921875 19.292969 L 3.601562 7.636719 C 3.742188 7.023438 4.15625 6.507812 4.722656 6.238281 L 15.585938 1.046875 C 15.832031 0.929688 16.105469 0.859375 16.378906 0.847656 M 16.378906 0.847656 "/>
<path fill-rule="evenodd" fill="rgb(100%, 100%, 100%)" fill-opacity="1" d="M 14.472656 6.832031 L 7.546875 8.839844 L 14.472656 10.851562 L 16.53125 10.253906 C 17.5 9.347656 18.773438 8.84375 20.097656 8.839844 C 20.429688 8.839844 20.753906 8.875 21.070312 8.933594 L 21.402344 8.839844 Z M 7.546875 9.609375 L 7.546875 16.980469 L 13.3125 20.175781 L 13.3125 17.910156 C 13.3125 17.226562 13.589844 16.660156 14.015625 16.203125 L 14.03125 11.539062 Z M 15.644531 11.320312 L 14.914062 11.539062 L 14.921875 13.191406 C 15.042969 12.527344 15.285156 11.890625 15.644531 11.320312 M 20.097656 13.273438 C 19.875 13.265625 19.660156 13.351562 19.503906 13.507812 C 19.34375 13.664062 19.257812 13.878906 19.265625 14.101562 L 19.265625 14.933594 L 20.925781 14.933594 L 20.925781 14.101562 C 20.933594 13.878906 20.847656 13.664062 20.691406 13.507812 C 20.535156 13.351562 20.320312 13.265625 20.097656 13.273438 M 20.097656 13.273438 "/>
<path fill-rule="nonzero" fill="rgb(100%, 100%, 100%)" fill-opacity="1" d="M 20.101562 9.945312 C 18 9.945312 16.292969 11.652344 16.292969 13.753906 L 16.292969 16.039062 C 15.457031 16.039062 14.769531 16.722656 14.769531 17.558594 L 14.769531 23.652344 C 14.769531 24.492188 15.457031 25.167969 16.292969 25.167969 L 23.910156 25.167969 C 24.746094 25.167969 25.433594 24.492188 25.433594 23.652344 L 25.433594 17.558594 C 25.433594 16.722656 24.746094 16.039062 23.910156 16.039062 L 23.910156 13.753906 C 23.90625 11.652344 22.203125 9.949219 20.101562 9.945312 M 20.101562 11.46875 C 21.363281 11.46875 22.386719 12.492188 22.386719 13.753906 L 22.386719 16.039062 L 17.816406 16.039062 L 17.816406 13.753906 C 17.816406 12.492188 18.839844 11.472656 20.101562 11.46875 M 20.101562 11.46875 "/>
</svg>

<svg role="img" viewBox="0 0 32.978 32" xmlns="http://www.w3.org/2000/svg"><path d="M16.379.848a2.1 2.1 0 0 0-.793.199L4.723 6.238a2.06 2.06 0 0 0-1.121 1.399L.922 19.293c-.14.61.004 1.254.398 1.742l7.52 9.348c.394.488.992.773 1.62.773l12.056-.004c.632 0 1.23-.28 1.625-.773l7.515-9.348a2.04 2.04 0 0 0 .403-1.742L29.375 7.633a2.06 2.06 0 0 0-1.125-1.399L17.387 1.047a2.1 2.1 0 0 0-1.008-.2m0 0" fill="rgb(19.607843%, 42.352942%, 89.803922%)"/><path d="M16.375.004a2.2 2.2 0 0 0-.84.21L4.07 5.696a2.17 2.17 0 0 0-1.187 1.473L.055 19.473a2.16 2.16 0 0 0 .297 1.668q.06.091.125.172l7.937 9.87a2.21 2.21 0 0 0 1.715.817l12.723-.004c.668 0 1.3-.3 1.714-.816l7.934-9.867c.414-.516.57-1.196.422-1.84L30.09 7.164a2.19 2.19 0 0 0-1.184-1.473L17.438.215a2.2 2.2 0 0 0-1.063-.211m.004.844c.348-.02.695.05 1.008.199L28.25 6.234c.566.274.98.786 1.125 1.399l2.684 11.656a2.04 2.04 0 0 1-.403 1.742l-7.515 9.348a2.07 2.07 0 0 1-1.625.773l-12.055.004c-.633 0-1.23-.285-1.621-.773l-7.52-9.348a2.04 2.04 0 0 1-.398-1.742l2.68-11.656a2.06 2.06 0 0 1 1.12-1.399l10.864-5.191c.246-.117.52-.188.793-.2m0 0" fill="rgb(100%, 100%, 100%)"/><path d="M14.473 6.832 7.547 8.84l6.926 2.012 2.058-.598a5.24 5.24 0 0 1 3.567-1.414c.332 0 .656.035.972.094l.332-.094ZM7.547 9.609v7.371l5.766 3.196V17.91c0-.683.277-1.25.703-1.707l.015-4.664Zm8.098 1.711-.73.22.007 1.651c.121-.664.363-1.3.723-1.87m4.453 1.952a.8.8 0 0 0-.594.235.8.8 0 0 0-.238.594v.832h1.66v-.832a.8.8 0 0 0-.828-.829m0 0" fill="rgb(100%, 100%, 100%)" fill-rule="evenodd"/><path d="M20.102 9.945a3.81 3.81 0 0 0-3.809 3.809v2.285c-.836 0-1.523.684-1.523 1.52v6.093c0 .84.687 1.516 1.523 1.516h7.617c.836 0 1.524-.676 1.524-1.516V17.56c0-.836-.688-1.52-1.524-1.52v-2.285a3.816 3.816 0 0 0-3.808-3.809m0 1.524a2.286 2.286 0 0 1 2.285 2.285v2.285h-4.57v-2.285a2.29 2.29 0 0 1 2.285-2.285m0 0" fill="rgb(100%, 100%, 100%)"/></svg>
